src/lib/packages/icons/src/assets/filled/message-dots.svg

<svg width="24" height="24" viewBox="0 0 24 24" fill="none" xmlns="http://www.w3.org/2000/svg">
<path d="M18 3H6C4 3 3 4 3 6V21L6 18H18C20 18 21 17 21 15V6C21 4 20 3 18 3ZM8.02002 11.5C7.46802 11.5 7.01489 11.052 7.01489 10.5C7.01489 9.948 7.45801 9.5 8.01001 9.5H8.02002C8.57302 9.5 9.02002 9.948 9.02002 10.5C9.02002 11.052 8.57202 11.5 8.02002 11.5ZM12.02 11.5C11.468 11.5 11.0149 11.052 11.0149 10.5C11.0149 9.948 11.458 9.5 12.01 9.5H12.02C12.573 9.5 13.02 9.948 13.02 10.5C13.02 11.052 12.572 11.5 12.02 11.5ZM16.02 11.5C15.468 11.5 15.0149 11.052 15.0149 10.5C15.0149 9.948 15.458 9.5 16.01 9.5H16.02C16.573 9.5 17.02 9.948 17.02 10.5C17.02 11.052 16.572 11.5 16.02 11.5Z" fill="currentColor"/>
</svg>

<svg xmlns="http://www.w3.org/2000/svg" width="24" height="24" fill="none"><path fill="currentColor" d="M18 3H6C4 3 3 4 3 6v15l3-3h12c2 0 3-1 3-3V6c0-2-1-3-3-3Zm-9.98 8.5a1.005 1.005 0 0 1-1.005-1c0-.552.443-1 .995-1h.01a1 1 0 1 1 0 2Zm4 0a1.005 1.005 0 0 1-1.005-1c0-.552.443-1 .995-1h.01a1 1 0 1 1 0 2Zm4 0a1.005 1.005 0 0 1-1.005-1c0-.552.443-1 .995-1h.01a1 1 0 1 1 0 2Z"/></svg>
